src/images/svg/logo-careers.svg

<?xml version="1.0" encoding="UTF-8"?>
<svg width="289px" height="27px" viewBox="0 0 289 27" version="1.1" xmlns="http://www.w3.org/2000/svg"
    xmlns:xlink="http://www.w3.org/1999/xlink" role='img'>
    <title id='logo-partner'>Deriv</title>
    <desc>Deriv powered by Binary.com</desc>
    <defs>
        <linearGradient x1="50%" y1="0%" x2="50%" y2="100%" id="linearGradient-1">
            <stop stop-color="#FF6544" offset="0%"></stop>
            <stop stop-color="#FF4449" offset="100%"></stop>
        </linearGradient>
    </defs>
    <g id="Responsible-trading" stroke="none" stroke-width="1" fill="none" fill-rule="evenodd">
        <g transform="translate(-120.000000, -23.000000)" id="Header">
            <g>
                <g id="Group">
                    <g transform="translate(120.000000, 0.000000)">
                        <g id="logo/left_part">
                            <g id="poweredby-1" fill-rule="evenodd" transform="translate(0.000000, 23.000000)">
                                <g id="1--logo/2-white" fill-rule="nonzero">
                                    <g id="logo">
                                        <g id="logo/light">
                                            <path
                                                d="M6.13001383,0 L6.13001383,0.02925 L16.3142462,13.5 L0,26.97075 L0,27 L16.4735823,27 C21.2812172,27.0004947 25.4528128,23.6268291 26.5338866,18.864 L27.8970954,12.8565 C28.6044998,9.73992645 27.8756252,6.46547551 25.917293,3.96228707 C23.9589608,1.45909863 20.9848966,0.000361950371 17.8390041,0 L6.13001383,0 Z"
                                                id="Path" fill="url(#linearGradient-1)"></path>
                                            <polygon id="Path" fill="#B51A31"
                                                points="16.3076072 13.527 9.14412172 27 0 27"></polygon>
                                            <path
                                                d="M139.882987,0 L143.503458,18.87975 L153.669986,0 L159.923928,0 L144.581189,27 L139.458091,27 L133.480774,0 L139.882987,0 Z M49.9311203,0 C58.2099585,0 62.9413554,5.7825 61.6334716,13.32675 L61.6201936,13.40325 C60.3100968,20.94975 53.5692946,26.80875 45.2816044,26.80875 L35,26.80875 L39.6473029,0 L49.9311203,0 Z M107.150484,0 C110.503181,0 112.93527,0.9585 114.353803,2.72025 C115.564315,4.212 115.993637,6.32025 115.551037,8.847 L115.551037,8.847 L115.537759,8.9235 C114.796404,13.25025 112.027939,15.9705 108.456155,17.235 L108.456155,17.235 L113.234025,26.80875 L106.453389,26.80875 L100.144122,13.01625 L104.50816,13.01625 C107.334163,13.01625 109.21964,11.475 109.611342,9.225 L109.611342,9.225 L109.62462,9.1485 C110.062794,6.62625 108.55574,5.3235 105.729737,5.3235 L105.729737,5.3235 L99.9759336,5.3235 L96.2492393,26.80875 L90.4489626,26.80875 L95.0962655,0 L107.150484,0 Z M128.771507,0 L124.124205,26.80875 L118.321715,26.80875 L122.971231,0 L128.771507,0 Z M89.371231,0 L88.4594744,5.247 L74.3360996,5.247 L73.391148,10.68525 L82.5087137,10.68525 L81.5991701,15.93225 L72.4816044,15.93225 L71.5056708,21.55725 L85.8193637,21.55725 L84.9098202,26.80425 L64.8334716,26.80425 L69.4807745,0 L89.371231,0 Z M49.0082987,5.3235 L44.5269709,5.3235 L41.7230982,21.48525 L46.206639,21.48525 C50.9513139,21.48525 54.7178423,18.2295 55.5410788,13.47975 L55.5543568,13.40325 C56.3775933,8.65575 53.7551867,5.3235 49.0082987,5.3235 Z"
                                                id="Combined-Shape" fill="#FFFFFF"></path>
                                        </g>
                                    </g>
                                </g>
                            </g>
                            <line x1="179.5" y1="23" x2="179.5" y2="50" id="Path-2" stroke="#FFFFFF"></line>
                        </g>
                        <g id="logo/right_part" transform="translate(180.000000, 0.000000)">
                            <g id="Group-2" transform="translate(7.000000, 25.000000)">
                                <g id="Group" transform="translate(0.500000, 0.000000)">

                                    <g id="Powered-by" fill="#FFFFFF" font-family="IBMPlexSans, IBM Plex Sans"
                                        font-size="22" font-weight="normal" linespacing="12">
                                        <text id="A-Binary.com-brand">
                                            <tspan x="12" y="19" font-family="IBMPlexSans-Bold, IBM Plex Sans"
                                                font-weight="normal">Careers</tspan>
                                        </text>
                                    </g>
                                </g>
                            </g>
                        </g>
                    </g>
                </g>
            </g>
        </g>
    </g>
</svg>

<svg width="289" height="27" xmlns="http://www.w3.org/2000/svg"><defs><linearGradient x1="50%" y1="0%" x2="50%" y2="100%" id="a"><stop stop-color="#FF6544" offset="0%"/><stop stop-color="#FF4449" offset="100%"/></linearGradient></defs><g fill="none" fill-rule="evenodd"><g fill-rule="nonzero"><path d="M6.13 0v.03L16.314 13.5 0 26.97V27h16.474c4.807 0 8.979-3.373 10.06-8.136l1.363-6.008a10.63 10.63 0 00-1.98-8.894A10.261 10.261 0 0017.84 0H6.13z" fill="url(#a)"/><path fill="#B51A31" d="M16.308 13.527L9.144 27H0z"/><path d="M139.883 0l3.62 18.88L153.67 0h6.254L144.58 27h-5.123l-5.977-27h6.402zM49.931 0c8.279 0 13.01 5.782 11.702 13.327l-.013.076C60.31 20.95 53.57 26.81 45.282 26.81H35L39.647 0h10.284zm57.22 0c3.352 0 5.784.959 7.203 2.72 1.21 1.492 1.64 3.6 1.197 6.127l-.013.077c-.742 4.326-3.51 7.046-7.082 8.311l4.778 9.574h-6.78l-6.31-13.793h4.364c2.826 0 4.712-1.541 5.103-3.791l.014-.076c.438-2.523-1.07-3.825-3.895-3.825h-5.754l-3.727 21.485h-5.8L95.096 0h12.054zm21.62 0l-4.647 26.809h-5.802L122.972 0h5.8zm-39.4 0l-.912 5.247H74.336l-.945 5.438h9.118l-.91 5.247h-9.117l-.976 5.625h14.313l-.91 5.247H64.834L69.481 0h19.89zM49.008 5.324h-4.481l-2.804 16.161h4.484c4.744 0 8.51-3.255 9.334-8.005l.013-.077c.824-4.747-1.799-8.08-6.546-8.08z" fill="#FFF"/></g><path stroke="#FFF" d="M179.5 0v27"/><g><text transform="translate(187.5 2)" fill="#FFF" font-family="IBMPlexSans, IBM Plex Sans" font-size="22"><tspan x="12" y="19" font-family="IBMPlexSans-Bold, IBM Plex Sans">Careers</tspan></text></g></g></svg>
